Newaita/actions/32/edit-clear.svg

<svg height="32" viewBox="0 0 32 32" width="32" xmlns="http://www.w3.org/2000/svg"><g fill="#424242"><path d="m24.476562 2.894531c-.230468 0-.449218.03125-.660156.085938v-.078125h-10.585937c-.40625 0-.789063.1875-1.039063.507812l-9.261718 11.90625c-.371094.476563-.371094 1.144532 0 1.617188l9.261718 11.910156c.25.320312.632813.507812 1.039063.507812h10.585937v-.078124c.210938.054687.429688.082031.660156.082031h1.984376c1.464843 0 2.644531-1.179688 2.644531-2.644531v-21.167969c0-1.464844-1.179688-2.648438-2.644531-2.648438zm-10.601562 2.640625h7.957031v.007813h3.304688c.734375 0 1.324219.589843 1.324219 1.320312v18.523438c0 .734375-.589844 1.324219-1.324219 1.324219h-3.304688v.007812h-7.957031l-8.238281-10.59375zm0 0"/><path d="m22.464844 11.964844.933594.933594c.257812.257812.257812.679687 0 .9375l-6.546876 6.546874c-.257812.257813-.679687.257813-.9375 0l-.933593-.933593c-.257813-.257813-.257813-.679688 0-.9375l6.546875-6.546875c.257812-.257813.675781-.257813.9375 0zm0 0"/><path d="m23.398438 19.449219-.933594.933593c-.261719.257813-.679688.257813-.9375 0l-6.546875-6.546874c-.257813-.257813-.257813-.679688 0-.9375l.933593-.933594c.257813-.257813.679688-.257813.9375 0l6.546876 6.546875c.257812.257812.257812.679687 0 .9375zm0 0"/></g></svg>

<?xml version="1.0" encoding="UTF-8"?>
<svg xmlns="http://www.w3.org/2000/svg" xmlns:xlink="http://www.w3.org/1999/xlink" width="32px" height="32px" viewBox="0 0 32 32" version="1.1">
<g id="surface1">
<path style=" stroke:none;fill-rule:nonzero;fill:rgb(25.882354%,25.882354%,25.882354%);fill-opacity:1;" d="M 24.476562 2.894531 C 24.246094 2.894531 24.027344 2.925781 23.816406 2.980469 L 23.816406 2.902344 L 13.230469 2.902344 C 12.824219 2.902344 12.441406 3.089844 12.191406 3.410156 L 2.929688 15.316406 C 2.558594 15.792969 2.558594 16.460938 2.929688 16.933594 L 12.191406 28.84375 C 12.441406 29.164062 12.824219 29.351562 13.230469 29.351562 L 23.816406 29.351562 L 23.816406 29.273438 C 24.027344 29.328125 24.246094 29.355469 24.476562 29.355469 L 26.460938 29.355469 C 27.925781 29.355469 29.105469 28.175781 29.105469 26.710938 L 29.105469 5.542969 C 29.105469 4.078125 27.925781 2.894531 26.460938 2.894531 Z M 13.875 5.535156 L 21.832031 5.535156 C 21.832031 5.539062 21.832031 5.539062 21.832031 5.542969 L 25.136719 5.542969 C 25.871094 5.542969 26.460938 6.132812 26.460938 6.863281 L 26.460938 25.386719 C 26.460938 26.121094 25.871094 26.710938 25.136719 26.710938 L 21.832031 26.710938 C 21.832031 26.714844 21.832031 26.714844 21.832031 26.71875 L 13.875 26.71875 L 5.636719 16.125 Z M 13.875 5.535156 "/>
<path style=" stroke:none;fill-rule:nonzero;fill:rgb(25.882354%,25.882354%,25.882354%);fill-opacity:1;" d="M 22.464844 11.964844 L 23.398438 12.898438 C 23.65625 13.15625 23.65625 13.578125 23.398438 13.835938 L 16.851562 20.382812 C 16.59375 20.640625 16.171875 20.640625 15.914062 20.382812 L 14.980469 19.449219 C 14.722656 19.191406 14.722656 18.769531 14.980469 18.511719 L 21.527344 11.964844 C 21.785156 11.707031 22.203125 11.707031 22.464844 11.964844 Z M 22.464844 11.964844 "/>
<path style=" stroke:none;fill-rule:nonzero;fill:rgb(25.882354%,25.882354%,25.882354%);fill-opacity:1;" d="M 23.398438 19.449219 L 22.464844 20.382812 C 22.203125 20.640625 21.785156 20.640625 21.527344 20.382812 L 14.980469 13.835938 C 14.722656 13.578125 14.722656 13.15625 14.980469 12.898438 L 15.914062 11.964844 C 16.171875 11.707031 16.59375 11.707031 16.851562 11.964844 L 23.398438 18.511719 C 23.65625 18.769531 23.65625 19.191406 23.398438 19.449219 Z M 23.398438 19.449219 "/>
</g>
</svg>
